X:243
L:1/8
M:6/8
K:Emin
 GEF G2 A | Bee edc | B3 GBG | AFD AFD | GEF G2 A | Bee edc | B3 GBG | AFD E3 :| gfe fed | 
 Bee Bee | gfe fed | Bcd e2 f | g2 e fed | Bee Bee | gfe fed | Bcd edc |]"^Etc." BEF G2 A |]

